build/assets/images/Frame.svg

<svg width="55" height="55" viewBox="0 0 55 55" fill="none" xmlns="http://www.w3.org/2000/svg">
<g clip-path="url(#clip0_20_586)">
<path d="M49.0929 36.9982C46.402 39.1821 43.4393 40.9922 40.2263 42.2673L46.0679 52.3854L51.8633 54.8604C52.9171 55.3105 54.1073 54.6229 54.2448 53.4854L54.9989 47.228L49.0929 36.9982ZM53.6572 26.8404C54.1793 26.0165 53.8603 24.9079 53.0073 24.4353L49.992 22.7627C49.1885 22.3169 48.2077 22.6059 47.7082 23.3771C43.2921 30.2017 35.6909 34.375 27.5 34.375C24.9294 34.375 22.4265 33.9185 20.0438 33.1364L27.2798 20.6024C27.355 20.6046 27.4237 20.625 27.4989 20.625C27.5741 20.625 27.6439 20.6046 27.7181 20.6024L33.2062 30.1093C36.561 29.1468 39.6043 27.3432 42.0804 24.8542L36.517 15.2174C37.3173 13.7532 37.8125 12.0989 37.8125 10.3125C37.8125 4.61699 33.1955 0 27.5 0C21.8045 0 17.1875 4.61699 17.1875 10.3125C17.1875 12.0989 17.6827 13.7532 18.4819 15.2174L11.145 27.9265C9.79688 26.6793 8.57119 25.285 7.52705 23.737C7.0125 22.9743 6.02637 22.7036 5.23037 23.1645L2.24941 24.8907C1.40615 25.3784 1.10752 26.4913 1.64355 27.3045C3.31611 29.8439 5.37002 32.0536 7.65703 33.9668L0 47.2291L0.754102 53.4864C0.891602 54.624 2.08184 55.3115 3.13564 54.8614L8.93106 52.3864L16.5365 39.2133C19.9944 40.5281 23.6994 41.25 27.5 41.25C38.1401 41.25 48.0047 35.7704 53.6572 26.8404ZM27.5 6.875C29.3981 6.875 30.9375 8.41436 30.9375 10.3125C30.9375 12.2106 29.3981 13.75 27.5 13.75C25.6019 13.75 24.0625 12.2106 24.0625 10.3125C24.0625 8.41436 25.6019 6.875 27.5 6.875Z" fill="white"/>
</g>
<defs>
<clipPath id="clip0_20_586">
<rect width="55" height="55" fill="white"/>
</clipPath>
</defs>
</svg>

<svg width="55" height="55" fill="none" xmlns="http://www.w3.org/2000/svg"><g clip-path="url(#clip0_20_586)"><path d="M49.093 36.998c-2.691 2.184-5.654 3.994-8.867 5.27l5.842 10.117 5.795 2.475a1.719 1.719 0 002.382-1.375l.754-6.257-5.906-10.23zm4.564-10.158c.522-.823.203-1.932-.65-2.405l-3.015-1.672c-.803-.446-1.784-.157-2.284.614A24.086 24.086 0 0127.5 34.375c-2.57 0-5.073-.456-7.456-1.239l7.236-12.534c.075.003.144.023.219.023.075 0 .145-.02.22-.023l5.487 9.507a20.462 20.462 0 008.874-5.255l-5.563-9.637c.8-1.464 1.295-3.118 1.295-4.905C37.813 4.617 33.197 0 27.5 0c-5.695 0-10.313 4.617-10.313 10.313 0 1.786.496 3.44 1.295 4.904l-7.337 12.71a24.018 24.018 0 01-3.618-4.19c-.514-.763-1.5-1.033-2.297-.572L2.25 24.89c-.844.487-1.142 1.6-.606 2.414 1.672 2.539 3.726 4.749 6.013 6.662L0 47.229l.754 6.257a1.719 1.719 0 002.382 1.375l5.795-2.475 7.606-13.173A30.836 30.836 0 0027.5 41.25c10.64 0 20.505-5.48 26.157-14.41zM27.5 6.875a3.438 3.438 0 110 6.876 3.438 3.438 0 010-6.876z" fill="#fff"/></g><defs><clipPath id="clip0_20_586"><path fill="#fff" d="M0 0h55v55H0z"/></clipPath></defs></svg>
